X: 9035
T: Deering Station (with piano acc.)
C: BB
R: reel
Q: 1/8=350
M: 4/4
L: 1/8
V: 1 program 1 21 %acc
V: 2 volume=70 clef=bass m=D program 1 00
K: G
[V:1] D |"G"D2 B,D "Em7"E2 DE|"G"G2 FG "Bm"Bd (3d^cd|"C"cBcd "Em"egdB |"Am"cBAG "C"EDCE |
[V:2] z|G,,2[G2D2B2]E,2[B2D2G2]|G,,2[G2D2B2]B,,2[B2D2F2]|C,2[C2G2E2]E,2[B2E2G2]|\
A,,2[A2E2C2]C,2[C2G2E2]|
%
[V:1] "G"D2 B,D "Em7"E2 DE | "G"G2 FG "Bm"Bd (3d^cd |"C"cBcd "Am7"eage |\
"D"dBAF "G"G3 :|
[V:2] G,,2[G2D2B2]E,2[B2D2G2]|G,,2[G2D2B2]B,,2[B2D2F2]|C,2[C2G2E2]A,,2[E2G2C2]|\
D,2[D2A2F2]G,,3 :|
%
[V:1] A | "Em"Bee^c "G"dgga | "G"bg"D"af "Em7"gfed | "Em"Bee^c "G"dege |\
"D"dBAF "G"G3 A |
[V:2] z |E,2[B2E2G2]B,,2[G2D2B,2]|G,,2[D2A2F2]B,,2[E2G2B2]|E,2[B2E2G2]G,,2[G2D2B2]|\
D,2[D2A2F2]G,,2[G2D2B2]|
%
[V:1] "Em"Bee^c "G"dgga | "G"bg"D"af "Em7"gfed | "G"gb (3bab "Am7"eage |"D"dBAF "G"G3 :|
[V:2] E,2[B2E2G2]B,,2[G2D2B2]|G,,2[D2A2F2]E,,2[E2G2B2]|B,,2[G2D2B2]A,,2[E2G2C2]|\
D,2[D2A2F2]G,,3 :|
%%%%%%tune repeat
[V:1] D |"G"D2 B,D "Em7"E2 DE|"G"G2 FG "Bm"Bd (3d^cd|"C"cBcd "Em"egdB |"Am"cBAG "C"EDCE |
[V:2] z|G,,2[G2D2B2]E,2[B2D2G2]|G,,2[G2D2B2]B,,2[B2D2F2]|C,2[C2G2E2]E,2[B2E2G2]|\
A,,2[A2E2C2]C,2[C2G2E2]|
%
[V:1] "G"D2 B,D "Em7"E2 DE | "G"G2 FG "Bm"Bd (3d^cd |"C"cBcd "Am7"eage |\
"D"dBAF "G"G3 :|
[V:2] G,,2[G2D2B2]E,2[B2D2G2]|G,,2[G2D2B2]B,,2[B2D2F2]|C,2[C2G2E2]A,,2[E2G2C2]|\
D,2[D2A2F2]G,,3 :|
%
[V:1] A | "Em"Bee^c "G"dgga | "G"bg"D"af "Em7"gfed | "Em"Bee^c "G"dege |\
"D"dBAF "G"G3 A |
[V:2] z |E,2[B2E2G2]B,,2[G2D2B,2]|G,,2[D2A2F2]B,,2[E2G2B2]|E,2[B2E2G2]G,,2[G2D2B2]|\
D,2[D2A2F2]G,,2[G2D2B2]|
%
[V:1] "Em"Bee^c "G"dgga | "G"bg"D"af "Em7"gfed | "G"gb (3bab "Am7"eage |1\
"D"dBAF "G"G3 :|2 "D"dBAF "G"G4-|G4 z4||
[V:2] E,2[B2E2G2]B,,2[G2D2B2]|G,,2[D2A2F2]E,,2[E2G2B2]|B,,2[G2D2B2]A,,2[E2G2C2]|1\
D,2[D2A2F2]G,,3 :|2 D,2[D2A2F2][G,,4-D,4-B,4-]|[G,,4D,4B,4] z4||
%%%%%%%%%%%%%%%%%%%%%%%%%%%%%%%%%%%%%%%%%%%
